public/images/poses-sm/UpwardBow.svg

<svg width="800" height="900" fill="none" xmlns="http://www.w3.org/2000/svg"><path d="M343.858 279.511c5.417-18.495 12.923-37.355 19.857-43.613 0 0-19.787 3.527-51.393 4.845-31.606 1.316-36.528-2.911-51.467 3.906-14.941 6.82-39.758 31.725-54.723 52.867-14.969 21.142-38.185 34.006-48.209 48.178-10.03 14.176-15.674 26.598-7.958 73.838 7.711 47.235-8.469 71.139-8.469 71.139l44.215 16.747s-2.449-33.684 16.74-52.881c19.19-19.196 31.983-20.516 47.41-39.337 15.427-18.819 30.313-63.11 56.952-76.865 0 0 11.029-7.028 25.204-6.344 0 0 4.618-27.822 11.841-52.48Z" fill="#fff" stroke="#000" stroke-width="5" stroke-miterlimit="10"/><path d="M343.858 279.511c5.417-18.495 12.923-37.355 19.857-43.613 0 0-19.787 3.527-51.393 4.845-31.606 1.316-36.528-2.911-51.467 3.906-14.941 6.82-39.758 31.725-54.723 52.867-14.969 21.142-38.185 34.006-48.209 48.178-10.03 14.176-15.674 26.598-7.958 73.838 7.711 47.235-8.469 71.139-8.469 71.139l44.215 16.747s-2.449-33.684 16.74-52.881c19.19-19.196 31.983-20.516 47.41-39.337 15.427-18.819 30.313-63.11 56.952-76.865 0 0 11.029-7.028 25.204-6.344 0 0 4.618-27.822 11.841-52.48Z" stroke="#000" stroke-width="5" stroke-miterlimit="10"/><path d="M171.218 483.773c8.689 6.584 8.234 16.955 14.607 27.108 10.121 16.134-3.563 42.241-23.546 49.546-26.385 9.652-67.345-81.836-53.113-89.865 8.429-4.757 27.741-4.257 45.775 5.349 5.801 3.095 16.277 7.862 16.277 7.862Z" fill="#fff" stroke="#000" stroke-width="5" stroke-miterlimit="10"/><path d="M171.218 483.773c8.689 6.584 8.234 16.955 14.607 27.108 10.121 16.134-3.563 42.241-23.546 49.546-26.385 9.652-67.345-81.836-53.113-89.865 8.429-4.757 27.741-4.257 45.775 5.349 5.801 3.095 16.277 7.862 16.277 7.862Z" stroke="#000" stroke-width="5" stroke-miterlimit="10"/><path d="M397.359 655.905c-20.498 5.413-68.248 4.499-109.119 3.764-35.695-.64-69.988 1.062-88.622-8.384-43.098-21.843-55.302-85.552-56.537-113.747-.5-5.688-.312-11.654.838-17.114.012-.074 0-.157.032-.224l.035-.068c2.181-10.012 7.626-18.264 18.091-19.857 25.345-3.865 10.185-13.484 6.549-17.009-3.636-3.523-2.793-4.701-1.047-6.9 1.747-2.198 22.783-6.255 35.904 15.699a104.391 104.391 0 0 1 2.076 3.647c.555 1.023 1.487 1.747 2.604 2.085 10.154 3.084 25.61 4.667 36.305 29.759 32.796 76.958 57.251 73.253 78.263 66.246 67.675-22.558 81.332 39.721 82.808 48.389 1.12 6.577.047 11.541-8.18 13.714Z" fill="#100200" stroke="#000" stroke-width="5" stroke-miterlimit="10"/><path d="M343.867 279.479c9.349-25.832 12.382-37.887 21.462-43.583 0 0 20.368-2.809 69.407 29.248 49.036 32.056 151.888 92.921 179.73 133.627 0 0 3.175 1.432 3.455 12.163.276 10.733-3.413 70.326-9.269 116.417-5.858 46.085-6.225 74.981-.711 89.785 5.52 14.805 52.541 26.914 61.854 28.732 9.314 1.818 22.106 4.818 23.611 7.01 1.506 2.188-2.122 8.51-6.289 10.099-4.17 1.585-92.843 1.346-101.246.653-8.407-.698-19.499-6.894-17.279-24.936 2.229-18.043 1.476-34.102.469-52.922-1.004-18.82-15.236-72.959-14.075-103.397 1.158-30.439 4.546-52.684 4.546-52.684s-49.466-6.984-92.367-28.239c-42.907-21.255-34.811-23.936-76.575-22.971-41.766.963-46.381-37.123-51.038-42.829 0 0-3.654-3.661-7.54-3.661 0 .001 7.793-41.289 11.855-52.512Z" fill="#fff" stroke="#000" stroke-width="5" stroke-miterlimit="10"/><path d="M343.867 279.479c9.349-25.832 12.382-37.887 21.462-43.583 0 0 20.368-2.809 69.407 29.248 49.036 32.056 151.888 92.921 179.73 133.627 0 0 3.175 1.432 3.455 12.163.276 10.733-3.413 70.326-9.269 116.417-5.858 46.085-6.225 74.981-.711 89.785 5.52 14.805 52.541 26.914 61.854 28.732 9.314 1.818 22.106 4.818 23.611 7.01 1.506 2.188-2.122 8.51-6.289 10.099-4.17 1.585-92.843 1.346-101.246.653-8.407-.698-19.499-6.894-17.279-24.936 2.229-18.043 1.476-34.102.469-52.922-1.004-18.82-15.236-72.959-14.075-103.397 1.158-30.439 4.546-52.684 4.546-52.684s-49.466-6.984-92.367-28.239c-42.907-21.255-34.811-23.936-76.575-22.971-41.766.963-46.381-37.123-51.038-42.829 0 0-3.654-3.661-7.54-3.661 0 .001 7.793-41.289 11.855-52.512Z" stroke="#000" stroke-width="5" stroke-miterlimit="10"/><path d="M567.434 572.695s21.256 3.037 37.74-2.788Z" fill="#fff"/><path d="M567.434 572.695s21.256 3.037 37.74-2.788" stroke="#000" stroke-width="5" stroke-miterlimit="10"/><path d="M567.434 572.695s21.256 3.037 37.74-2.788" stroke="#000" stroke-width="5" stroke-miterlimit="10"/><path d="M332.016 331.99s11.893-77.204 33.311-96.094Z" fill="#fff"/><path d="M332.016 331.99s11.893-77.204 33.311-96.094" stroke="#000" stroke-width="5" stroke-miterlimit="10"/><path d="M332.016 331.99s11.893-77.204 33.311-96.094M151.695 434.229c17.347 3.382 38.341 28.585 38.341 28.585" stroke="#000" stroke-width="5" stroke-miterlimit="10"/><path d="M232.419 431.374 218.855 495l2.593 139.172a10.35 10.35 0 0 0 7.875 9.263c13.522 3.299 46.034 5.602 61.91 13.762 3.628 1.86 2.264 5.687-1.814 5.731l-74.069-.943a17.216 17.216 0 0 1-16.591-14.251c-5.867-33.611-17.02-118.84-21.453-144.391-5.579-32.143-1.902-87.361-1.902-87.361" fill="#fff"/><path d="M232.419 431.374 218.855 495l2.593 139.172a10.35 10.35 0 0 0 7.875 9.263c13.522 3.299 46.034 5.602 61.91 13.762 3.628 1.86 2.264 5.687-1.814 5.731l-74.069-.943a17.216 17.216 0 0 1-16.591-14.251c-5.867-33.611-17.02-118.84-21.453-144.391-5.579-32.143-1.902-87.361-1.902-87.361" stroke="#000" stroke-width="5" stroke-miterlimit="10"/><path d="M232.419 431.374 218.855 495l2.593 139.172a10.35 10.35 0 0 0 7.875 9.263c13.522 3.299 46.034 5.602 61.91 13.762 3.628 1.86 2.264 5.687-1.814 5.731l-74.069-.943a17.216 17.216 0 0 1-16.591-14.251c-5.867-33.611-17.02-118.84-21.453-144.391-5.579-32.143-1.902-87.361-1.902-87.361" stroke="#000" stroke-width="5" stroke-miterlimit="10"/><path d="M198.758 647.733c3.128-3.496 16.808-10.103 24.168-8.963Z" fill="#fff"/><path d="M198.758 647.733c3.128-3.496 16.808-10.103 24.168-8.963" stroke="#000" stroke-width="5" stroke-miterlimit="10"/><path d="M198.758 647.733c3.128-3.496 16.808-10.103 24.168-8.963" stroke="#000" stroke-width="5" stroke-miterlimit="10"/></svg>

<svg width="800" height="900" viewBox="0 0 800 900" fill="none" xmlns="http://www.w3.org/2000/svg">
<path d="M343.858 279.511C349.275 261.016 356.781 242.156 363.715 235.898C363.715 235.898 343.928 239.425 312.322 240.743C280.716 242.059 275.794 237.832 260.855 244.649C245.914 251.469 221.097 276.374 206.132 297.516C191.163 318.658 167.947 331.522 157.923 345.694C147.893 359.87 142.249 372.292 149.965 419.532C157.676 466.767 141.496 490.671 141.496 490.671L185.711 507.418C185.711 507.418 183.262 473.734 202.451 454.537C221.641 435.341 234.434 434.021 249.861 415.2C265.288 396.381 280.174 352.09 306.813 338.335C306.813 338.335 317.842 331.307 332.017 331.991C332.017 331.991 336.635 304.169 343.858 279.511Z" fill="white" stroke="black" stroke-width="5" stroke-miterlimit="10"/>
<path d="M343.858 279.511C349.275 261.016 356.781 242.156 363.715 235.898C363.715 235.898 343.928 239.425 312.322 240.743C280.716 242.059 275.794 237.832 260.855 244.649C245.914 251.469 221.097 276.374 206.132 297.516C191.163 318.658 167.947 331.522 157.923 345.694C147.893 359.87 142.249 372.292 149.965 419.532C157.676 466.767 141.496 490.671 141.496 490.671L185.711 507.418C185.711 507.418 183.262 473.734 202.451 454.537C221.641 435.341 234.434 434.021 249.861 415.2C265.288 396.381 280.174 352.09 306.813 338.335C306.813 338.335 317.842 331.307 332.017 331.991C332.017 331.991 336.635 304.169 343.858 279.511Z" stroke="black" stroke-width="5" stroke-miterlimit="10"/>
<path d="M171.218 483.773C179.907 490.357 179.452 500.728 185.825 510.881C195.946 527.015 182.262 553.122 162.279 560.427C135.894 570.079 94.9337 478.591 109.166 470.562C117.595 465.805 136.907 466.305 154.941 475.911C160.742 479.006 171.218 483.773 171.218 483.773Z" fill="white" stroke="black" stroke-width="5" stroke-miterlimit="10"/>
<path d="M171.218 483.773C179.907 490.357 179.452 500.728 185.825 510.881C195.946 527.015 182.262 553.122 162.279 560.427C135.894 570.079 94.9337 478.591 109.166 470.562C117.595 465.805 136.907 466.305 154.941 475.911C160.742 479.006 171.218 483.773 171.218 483.773Z" stroke="black" stroke-width="5" stroke-miterlimit="10"/>
<path d="M397.359 655.905C376.861 661.318 329.111 660.404 288.24 659.669C252.545 659.029 218.252 660.731 199.618 651.285C156.52 629.442 144.316 565.733 143.081 537.538C142.581 531.85 142.769 525.884 143.919 520.424C143.931 520.35 143.919 520.267 143.951 520.2C143.963 520.177 143.975 520.153 143.986 520.132C146.167 510.12 151.612 501.868 162.077 500.275C187.422 496.41 172.262 486.791 168.626 483.266C164.99 479.743 165.833 478.565 167.579 476.366C169.326 474.168 190.362 470.111 203.483 492.065C204.227 493.311 204.911 494.521 205.559 495.712C206.114 496.735 207.046 497.459 208.163 497.797C218.317 500.881 233.773 502.464 244.468 527.556C277.264 604.514 301.719 600.809 322.731 593.802C390.406 571.244 404.063 633.523 405.539 642.191C406.659 648.768 405.586 653.732 397.359 655.905Z" fill="#100200" stroke="black" stroke-width="5" stroke-miterlimit="10"/>
<path d="M343.867 279.479C353.216 253.647 356.249 241.592 365.329 235.896C365.329 235.896 385.697 233.087 434.736 265.144C483.772 297.2 586.624 358.065 614.466 398.771C614.466 398.771 617.641 400.203 617.921 410.934C618.197 421.667 614.508 481.26 608.652 527.351C602.794 573.436 602.427 602.332 607.941 617.136C613.461 631.941 660.482 644.05 669.795 645.868C679.109 647.686 691.901 650.686 693.406 652.878C694.912 655.066 691.284 661.388 687.117 662.977C682.947 664.562 594.274 664.323 585.871 663.63C577.464 662.932 566.372 656.736 568.592 638.694C570.821 620.651 570.068 604.592 569.061 585.772C568.057 566.952 553.825 512.813 554.986 482.375C556.144 451.936 559.532 429.691 559.532 429.691C559.532 429.691 510.066 422.707 467.165 401.452C424.258 380.197 432.354 377.516 390.59 378.481C348.824 379.444 344.209 341.358 339.552 335.652C339.552 335.652 335.898 331.991 332.012 331.991C332.012 331.992 339.805 290.702 343.867 279.479Z" fill="white" stroke="black" stroke-width="5" stroke-miterlimit="10"/>
<path d="M343.867 279.479C353.216 253.647 356.249 241.592 365.329 235.896C365.329 235.896 385.697 233.087 434.736 265.144C483.772 297.2 586.624 358.065 614.466 398.771C614.466 398.771 617.641 400.203 617.921 410.934C618.197 421.667 614.508 481.26 608.652 527.351C602.794 573.436 602.427 602.332 607.941 617.136C613.461 631.941 660.482 644.05 669.795 645.868C679.109 647.686 691.901 650.686 693.406 652.878C694.912 655.066 691.284 661.388 687.117 662.977C682.947 664.562 594.274 664.323 585.871 663.63C577.464 662.932 566.372 656.736 568.592 638.694C570.821 620.651 570.068 604.592 569.061 585.772C568.057 566.952 553.825 512.813 554.986 482.375C556.144 451.936 559.532 429.691 559.532 429.691C559.532 429.691 510.066 422.707 467.165 401.452C424.258 380.197 432.354 377.516 390.59 378.481C348.824 379.444 344.209 341.358 339.552 335.652C339.552 335.652 335.898 331.991 332.012 331.991C332.012 331.992 339.805 290.702 343.867 279.479Z" stroke="black" stroke-width="5" stroke-miterlimit="10"/>
<path d="M567.434 572.695C567.434 572.695 588.69 575.732 605.174 569.907Z" fill="white"/>
<path d="M567.434 572.695C567.434 572.695 588.69 575.732 605.174 569.907" stroke="black" stroke-width="5" stroke-miterlimit="10"/>
<path d="M567.434 572.695C567.434 572.695 588.69 575.732 605.174 569.907" stroke="black" stroke-width="5" stroke-miterlimit="10"/>
<path d="M332.016 331.99C332.016 331.99 343.909 254.786 365.327 235.896Z" fill="white"/>
<path d="M332.016 331.99C332.016 331.99 343.909 254.786 365.327 235.896" stroke="black" stroke-width="5" stroke-miterlimit="10"/>
<path d="M332.016 331.99C332.016 331.99 343.909 254.786 365.327 235.896" stroke="black" stroke-width="5" stroke-miterlimit="10"/>
<path d="M151.695 434.229C169.042 437.611 190.036 462.814 190.036 462.814" stroke="black" stroke-width="5" stroke-miterlimit="10"/>
<path d="M232.419 431.374L218.855 495L221.448 634.172C221.789 638.639 224.97 642.374 229.323 643.435C242.845 646.734 275.357 649.037 291.233 657.197C294.861 659.057 293.497 662.884 289.419 662.928L215.35 661.985C207.122 661.802 200.176 655.844 198.759 647.734C192.892 614.123 181.739 528.894 177.306 503.343C171.727 471.2 175.404 415.982 175.404 415.982" fill="white"/>
<path d="M232.419 431.374L218.855 495L221.448 634.172C221.789 638.639 224.97 642.374 229.323 643.435C242.845 646.734 275.357 649.037 291.233 657.197C294.861 659.057 293.497 662.884 289.419 662.928L215.35 661.985C207.122 661.802 200.176 655.844 198.759 647.734C192.892 614.123 181.739 528.894 177.306 503.343C171.727 471.2 175.404 415.982 175.404 415.982" stroke="black" stroke-width="5" stroke-miterlimit="10"/>
<path d="M232.419 431.374L218.855 495L221.448 634.172C221.789 638.639 224.97 642.374 229.323 643.435C242.845 646.734 275.357 649.037 291.233 657.197C294.861 659.057 293.497 662.884 289.419 662.928L215.35 661.985C207.122 661.802 200.176 655.844 198.759 647.734C192.892 614.123 181.739 528.894 177.306 503.343C171.727 471.2 175.404 415.982 175.404 415.982" stroke="black" stroke-width="5" stroke-miterlimit="10"/>
<path d="M198.758 647.733C201.886 644.237 215.566 637.63 222.926 638.77Z" fill="white"/>
<path d="M198.758 647.733C201.886 644.237 215.566 637.63 222.926 638.77" stroke="black" stroke-width="5" stroke-miterlimit="10"/>
<path d="M198.758 647.733C201.886 644.237 215.566 637.63 222.926 638.77" stroke="black" stroke-width="5" stroke-miterlimit="10"/>
</svg>
